X: 15399
T: Glaun
R: jig
M: 6/8
K: Fdorian
K: Ebmaj
|:BAc ~e2f|eGB ~e2f|~e3 Bef|edB ffe|
dAc ~e2f|eGB ~e2f|1 e3 Beg|bge dBc:|2 ~e3 ~B3|Bd/e/f Bdf||
BAc ~a2g|eGB egf|~e3 Bef|~f2e dBc|
BAc ~a2g|eGE EBe|~f2d Bef|bgf edB|
BAc ~a2g|eGB egf|~e3 Bef|~f2e dBc|
Bc'a ece|b2g eBe|~e3 Bde|~f2e dBc||

